assets/Cool button/Flat/cool_button_flat.svg

<svg width="32" height="32" viewBox="0 0 32 32" fill="none" xmlns="http://www.w3.org/2000/svg">
<path d="M2 6C2 3.79086 3.79086 2 6 2H26C28.2091 2 30 3.79086 30 6V26C30 28.2091 28.2091 30 26 30H6C3.79086 30 2 28.2091 2 26V6Z" fill="#00A6ED"/>
<path d="M7.08216 12.2387C5.64414 12.2387 4.47839 13.4045 4.47839 14.8425V17.2063C4.47839 18.6049 5.61218 19.7387 7.01078 19.7387C8.01086 19.7387 8.91727 19.1501 9.32413 18.2366L9.41921 18.0231C9.58773 17.6447 9.4176 17.2013 9.03921 17.0328C8.66083 16.8643 8.21748 17.0344 8.04896 17.4128L7.95388 17.6263C7.78801 17.9988 7.41849 18.2387 7.01078 18.2387C6.44061 18.2387 5.97839 17.7765 5.97839 17.2063V14.8425C5.97839 14.2329 6.47257 13.7387 7.08216 13.7387C7.4815 13.7387 7.8497 13.9544 8.04497 14.3027L8.07987 14.365C8.28242 14.7263 8.73952 14.855 9.10083 14.6525C9.46214 14.4499 9.59085 13.9928 9.3883 13.6315L9.3534 13.5693C8.89276 12.7475 8.02419 12.2387 7.08216 12.2387Z" fill="white"/>
<path d="M13.125 12.25C11.6753 12.25 10.5 13.4253 10.5 14.875V17.125C10.5 18.5747 11.6753 19.75 13.125 19.75C14.5747 19.75 15.75 18.5747 15.75 17.125V14.875C15.75 13.4253 14.5747 12.25 13.125 12.25ZM12 14.875C12 14.2537 12.5037 13.75 13.125 13.75C13.7463 13.75 14.25 14.2537 14.25 14.875V17.125C14.25 17.7463 13.7463 18.25 13.125 18.25C12.5037 18.25 12 17.7463 12 17.125V14.875Z" fill="white"/>
<path d="M16.7594 14.875C16.7594 13.4253 17.9347 12.25 19.3844 12.25C20.8341 12.25 22.0094 13.4253 22.0094 14.875V17.125C22.0094 18.5747 20.8341 19.75 19.3844 19.75C17.9347 19.75 16.7594 18.5747 16.7594 17.125V14.875ZM19.3844 13.75C18.7631 13.75 18.2594 14.2537 18.2594 14.875V17.125C18.2594 17.7463 18.7631 18.25 19.3844 18.25C20.0057 18.25 20.5094 17.7463 20.5094 17.125V14.875C20.5094 14.2537 20.0057 13.75 19.3844 13.75Z" fill="white"/>
<path d="M24.4943 13.0724C24.4943 12.6582 24.1585 12.3224 23.7443 12.3224C23.33 12.3224 22.9943 12.6582 22.9943 13.0724V18.9993C22.9943 19.4135 23.33 19.7493 23.7443 19.7493H26.7491C27.1633 19.7493 27.4991 19.4135 27.4991 18.9993C27.4991 18.5851 27.1633 18.2493 26.7491 18.2493H24.6193C24.5502 18.2493 24.4943 18.1933 24.4943 18.1243V13.0724Z" fill="white"/>
</svg>

<svg xmlns="http://www.w3.org/2000/svg" width="32" height="32" fill="none"><path fill="#00A6ED" d="M2 6a4 4 0 0 1 4-4h20a4 4 0 0 1 4 4v20a4 4 0 0 1-4 4H6a4 4 0 0 1-4-4V6Z"/><path fill="#fff" d="M7.082 12.239a2.604 2.604 0 0 0-2.604 2.603v2.364a2.532 2.532 0 0 0 4.846 1.03l.095-.213a.75.75 0 0 0-1.37-.61l-.095.213a1.032 1.032 0 0 1-1.976-.42v-2.364a1.104 1.104 0 0 1 2.067-.54l.035.063a.75.75 0 0 0 1.308-.733l-.035-.063a2.604 2.604 0 0 0-2.27-1.33ZM13.125 12.25a2.625 2.625 0 0 0-2.625 2.625v2.25a2.625 2.625 0 0 0 5.25 0v-2.25a2.625 2.625 0 0 0-2.625-2.625ZM12 14.875a1.125 1.125 0 0 1 2.25 0v2.25a1.125 1.125 0 0 1-2.25 0v-2.25ZM16.76 14.875a2.625 2.625 0 0 1 5.25 0v2.25a2.625 2.625 0 0 1-5.25 0v-2.25Zm2.624-1.125c-.62 0-1.125.504-1.125 1.125v2.25a1.125 1.125 0 0 0 2.25 0v-2.25c0-.621-.503-1.125-1.125-1.125ZM24.494 13.072a.75.75 0 0 0-1.5 0V19c0 .415.336.75.75.75h3.005a.75.75 0 0 0 0-1.5h-2.13a.125.125 0 0 1-.125-.125v-5.052Z"/></svg>
